X: 42471
T: Wexford Boys, The
R: jig
M: 6/8
K: Gmajor
|:GFG BGG|dGG BGG|ABA gfe|dcB cBA|
GFG BGG|dGG BGG|efg agf|1 g3 g3:|2 g3 g2|
|:d|gfg efg|fag fed|gfg a^ga|bee e2 f|
gfg efg|fag fed|efg agf|1 g3 g2:|2 g3 g3|

